assets/icons/plus.svg

<svg width="20" height="20" viewBox="0 0 20 20" fill="none" xmlns="http://www.w3.org/2000/svg">
<path d="M14.043 9.29688H10.7031V5.95703C10.7031 5.86035 10.624 5.78125 10.5273 5.78125H9.47266C9.37598 5.78125 9.29688 5.86035 9.29688 5.95703V9.29688H5.95703C5.86035 9.29688 5.78125 9.37598 5.78125 9.47266V10.5273C5.78125 10.624 5.86035 10.7031 5.95703 10.7031H9.29688V14.043C9.29688 14.1396 9.37598 14.2188 9.47266 14.2188H10.5273C10.624 14.2188 10.7031 14.1396 10.7031 14.043V10.7031H14.043C14.1396 10.7031 14.2188 10.624 14.2188 10.5273V9.47266C14.2188 9.37598 14.1396 9.29688 14.043 9.29688Z" fill="white"/>
<path d="M9.84375 0C4.40771 0 0 4.40771 0 9.84375C0 15.2798 4.40771 19.6875 9.84375 19.6875C15.2798 19.6875 19.6875 15.2798 19.6875 9.84375C19.6875 4.40771 15.2798 0 9.84375 0ZM9.84375 18.0176C5.33057 18.0176 1.66992 14.3569 1.66992 9.84375C1.66992 5.33057 5.33057 1.66992 9.84375 1.66992C14.3569 1.66992 18.0176 5.33057 18.0176 9.84375C18.0176 14.3569 14.3569 18.0176 9.84375 18.0176Z" fill="white"/>
</svg>

<svg width="20" height="20" viewBox="0 0 20 20" fill="none" xmlns="http://www.w3.org/2000/svg"><path d="M14.043 9.297h-3.34v-3.34a.176.176 0 00-.176-.176H9.473a.176.176 0 00-.176.176v3.34h-3.34a.176.176 0 00-.176.176v1.054c0 .097.08.176.176.176h3.34v3.34c0 .097.079.176.176.176h1.054c.097 0 .176-.08.176-.176v-3.34h3.34c.097 0 .176-.079.176-.176V9.473a.176.176 0 00-.176-.176z" fill="#fff"/><path d="M9.844 0C4.408 0 0 4.408 0 9.844c0 5.436 4.408 9.844 9.844 9.844 5.436 0 9.844-4.408 9.844-9.844C19.688 4.408 15.28 0 9.844 0zm0 18.018A8.175 8.175 0 011.67 9.844 8.175 8.175 0 019.844 1.67a8.175 8.175 0 018.174 8.174 8.175 8.175 0 01-8.174 8.174z" fill="#fff"/></svg>
